assets/01_base/Base_9.svg

<svg width="500" height="500" viewBox="0 0 500 500" fill="none" xmlns="http://www.w3.org/2000/svg">
<g clip-path="url(#clip0_70_80)">
<g clip-path="url(#clip1_70_80)">
<path d="M452.453 71.2799C397.054 15.8122 307.239 15.8122 251.839 71.2799L251.804 71.3152C250.935 70.3976 250.065 69.4918 249.161 68.5977C193.761 13.13 103.946 13.13 48.5468 68.5977C-6.85284 124.065 -6.85284 213.99 48.5468 269.458C49.4398 270.352 50.3445 271.234 51.261 272.105L51.2257 272.14L251.839 473L452.453 272.14C507.853 216.672 507.853 126.748 452.453 71.2799Z" fill="#FFB600"/>
<path d="M426.768 122.701C378.466 74.3387 300.142 74.3387 251.84 122.701L251.804 122.736C251.052 121.936 250.289 121.148 249.501 120.372C201.198 72.0094 122.875 72.0094 74.5724 120.372C26.2695 168.734 26.2695 247.153 74.5724 295.515C75.3478 296.292 76.1351 297.068 76.934 297.821L76.8988 297.856L251.828 473L426.757 297.856C475.06 249.494 475.06 171.075 426.757 122.713L426.768 122.701Z" fill="#FFED6C"/>
<path d="M399.404 177.51C358.656 136.712 292.587 136.712 251.84 177.51L251.816 177.533C251.182 176.863 250.535 176.192 249.877 175.533C209.13 134.735 143.061 134.735 102.313 175.533C61.5655 216.331 61.5655 282.481 102.313 323.278C102.971 323.937 103.641 324.584 104.311 325.22L104.287 325.243L251.851 472.988L399.415 325.243C440.163 284.445 440.163 218.296 399.415 177.498L399.404 177.51Z" fill="#FBCD5B"/>
</g>
</g>
<defs>
<clipPath id="clip0_70_80">
<rect width="500" height="500" fill="white"/>
</clipPath>
<clipPath id="clip1_70_80">
<rect width="487" height="446" fill="white" transform="translate(7 27)"/>
</clipPath>
</defs>
</svg>

<svg xmlns="http://www.w3.org/2000/svg" width="500" height="500" fill="none" viewBox="0 0 500 500"><g clip-path="url(#a)"><g clip-path="url(#b)"><path fill="#ffb600" d="M452.453 71.28c-55.399-55.468-145.214-55.468-200.614 0l-.035.035a116 116 0 0 0-2.643-2.717c-55.4-55.468-145.215-55.468-200.614 0-55.4 55.467-55.4 145.392 0 200.86q1.339 1.34 2.714 2.647l-.035.035L251.839 473l200.614-200.86c55.4-55.468 55.4-145.392 0-200.86"/><path fill="#ffed6c" d="M426.768 122.701c-48.302-48.362-126.626-48.362-174.928 0l-.036.035a85 85 0 0 0-2.303-2.364c-48.303-48.363-126.626-48.363-174.929 0s-48.302 126.781 0 175.143c.776.777 1.563 1.553 2.362 2.306l-.035.035L251.828 473l174.929-175.144c48.303-48.362 48.303-126.781 0-175.143z"/><path fill="#fbcd5b" d="M399.404 177.51c-40.748-40.798-106.817-40.798-147.564 0l-.024.023c-.634-.67-1.281-1.341-1.939-2-40.747-40.798-106.816-40.798-147.564 0s-40.747 106.948 0 147.745c.658.659 1.328 1.306 1.998 1.942l-.024.023 147.564 147.745 147.564-147.745c40.748-40.798 40.748-106.947 0-147.745z"/></g></g><defs><clipPath id="a"><path fill="#fff" d="M0 0h500v500H0z"/></clipPath><clipPath id="b"><path fill="#fff" d="M7 27h487v446H7z"/></clipPath></defs></svg>
